public/svg/hr.svg

<svg width="223" height="23" viewBox="0 0 223 23" fill="none" xmlns="http://www.w3.org/2000/svg">
<g clip-path="url(#clip0)">
<path d="M111.175 0.190124C145.047 -0.250068 179.986 0.170115 214.979 0.420224C216.948 0.491938 218.895 0.693448 220.778 1.02048C221.298 1.05802 221.786 1.18002 222.181 1.3711C222.576 1.56217 222.86 1.81376 222.998 2.09414C223.135 2.37451 223.119 2.6711 222.952 2.94651C222.785 3.22191 222.475 3.46379 222.06 3.64162C221.207 4.12622 220.183 4.50858 219.052 4.76499C217.921 5.02141 216.706 5.14642 215.484 5.13227C210.842 5.13227 206.199 5.13227 201.556 5.06224C175.578 4.64206 149.564 4.47199 123.513 4.55202C96.415 4.64206 69.1904 4.78212 42.038 4.82214C30.4216 4.9313 18.8026 4.71426 7.22588 4.17185C5.61805 4.08182 4.01023 3.95176 2.4024 3.8117C1.9455 3.79171 1.50572 3.70657 1.12584 3.56457C0.745955 3.42256 0.438903 3.22853 0.234548 3.00135C-0.199023 2.4411 -0.126761 2.00091 1.17395 1.87085C3.48633 1.73079 5.79871 1.58073 8.11109 1.54071C42.1103 1.00048 76.1095 0.360198 111.175 0.190124Z" fill="#3A3C51"/>
<path d="M101.854 11.3149C84.294 11.395 59.3275 11.445 34.3792 11.7551C31.2538 11.7551 28.1104 11.7551 24.9851 11.7551C24.1793 11.827 23.3536 11.7384 22.6547 11.505C22.41 11.3833 22.2396 11.2225 22.1669 11.0448C22.1543 10.9973 22.1594 10.9488 22.1821 10.9024C22.2048 10.8559 22.2445 10.8126 22.2987 10.7751C22.3529 10.7375 22.4206 10.7066 22.4973 10.6841C22.5741 10.6617 22.6584 10.6483 22.745 10.6446C23.5467 10.5735 24.3548 10.5268 25.1658 10.5046C55.2086 9.69423 85.2695 9.50415 115.33 9.41411C136.81 9.35409 158.272 9.64421 179.734 10.0644C183.907 10.1444 188.08 10.2445 192.253 10.3745C195.126 10.4646 196.679 11.0248 196.083 11.7151C195.288 12.6355 193.518 12.3154 192.109 12.2854C164.505 11.5951 136.883 11.2449 101.854 11.3149Z" fill="#3A3C51"/>
<path d="M121 19.7226C121 19.9013 121 20.0893 121 20.2679C120.895 22.0635 120.104 22.8062 118.127 22.9472C117.113 23.086 116.061 22.9488 115.181 22.5626C114.301 22.1763 113.655 21.569 113.371 20.8602C112.876 19.6315 112.876 18.3284 113.371 17.0997C113.845 15.6708 114.583 15.1161 116.006 15.0127C116.901 14.953 117.798 15.1047 118.56 15.4444C119.322 15.7841 119.906 16.2931 120.223 16.8929C120.707 17.7975 120.97 18.7546 121 19.7226Z" fill="#3A3C51"/>
<path d="M103.603 17.5986C101.797 17.5186 100.514 16.9283 100.568 16.148C100.554 15.9561 100.619 15.7649 100.756 15.5887C100.894 15.4124 101.102 15.2555 101.363 15.1297C101.625 15.0038 101.935 14.9122 102.27 14.8616C102.604 14.811 102.955 14.8028 103.296 14.8374C104.101 14.8819 104.852 15.0798 105.423 15.3974C105.993 15.7149 106.346 16.1324 106.421 16.5782C106.349 17.2385 105.175 17.6587 103.603 17.5986Z" fill="#3A3C51"/>
<path d="M129.363 15.0068C130.221 14.9735 131.082 15.0627 131.755 15.2546C132.429 15.4465 132.86 15.7256 132.954 16.0305C133.028 16.1598 133.012 16.2935 132.907 16.42C132.802 16.5466 132.612 16.6621 132.352 16.7564C132.093 16.8508 131.772 16.9212 131.419 16.9614C131.065 17.0017 130.689 17.0106 130.324 16.9874C129.895 17.0059 129.46 16.991 129.049 16.9436C128.638 16.8961 128.261 16.8174 127.945 16.7128C127.629 16.6082 127.381 16.4804 127.218 16.3382C127.055 16.196 126.982 16.0429 127.004 15.8896C126.983 15.3184 127.714 15.0143 129.363 15.0068Z" fill="#3A3C51"/>
</g>
<defs>
<clipPath id="clip0">
<rect width="223" height="23" fill="white"/>
</clipPath>
</defs>
</svg>

<svg xmlns="http://www.w3.org/2000/svg" width="223" height="23" fill="none" xmlns:v="https://vecta.io/nano"><g clip-path="url(#A)" fill="#3a3c51"><path d="M111.175.2c33.872-.44 68.8-.02 103.804.23 1.97.072 3.916.273 5.8.6.52.038 1.008.16 1.403.35s.68.443.817.723.12.577-.046.852-.477.517-.892.695c-.853.485-1.877.867-3.008 1.123a15.45 15.45 0 0 1-3.568.367c-4.642 0-9.285 0-13.928-.07l-78.043-.5-81.475.27c-11.616.1-23.235-.108-34.812-.65a156.32 156.32 0 0 1-4.823-.36c-.457-.02-.897-.105-1.277-.247S.44 3.23.235 3c-.434-.56-.36-1 .94-1.13 2.312-.14 4.625-.3 6.937-.33L111.175.2zm-9.32 11.115l-67.475.44h-9.394a5.87 5.87 0 0 1-2.33-.25c-.245-.122-.415-.283-.488-.46a.2.2 0 0 1 .015-.142.28.28 0 0 1 .117-.127.69.69 0 0 1 .199-.091 1.05 1.05 0 0 1 .248-.04 39.72 39.72 0 0 1 2.421-.14c30.043-.8 60.104-1 90.164-1.1l64.404.65 12.52.3c2.873.1 4.426.65 3.83 1.34-.795.92-2.565.6-3.974.57l-90.255-.97zM121 19.723v.545c-.105 1.796-.896 2.538-2.873 2.68-1.014.14-2.066.002-2.946-.385s-1.526-.994-1.8-1.702c-.495-1.23-.495-2.532 0-3.76.474-1.43 1.212-1.984 2.635-2.087.895-.06 1.792.092 2.554.432s1.346.85 1.663 1.45a6.4 6.4 0 0 1 .777 2.83zM103.603 17.6c-1.806-.08-3.1-.67-3.035-1.45a.81.81 0 0 1 .188-.559c.138-.176.346-.333.607-.46a3.19 3.19 0 0 1 .907-.268 4.13 4.13 0 0 1 1.026-.024c.805.044 1.556.242 2.127.56s.923.735.998 1.18c-.072.66-1.246 1.08-2.818 1.02zm25.76-2.593c.858-.033 1.72.056 2.392.248s1.105.47 1.2.776c.074.13.058.263-.047.4s-.295.242-.555.336-.58.165-.933.205-.73.05-1.095.026c-.43.018-.864.004-1.275-.044a5.71 5.71 0 0 1-1.104-.23c-.316-.104-.564-.232-.727-.375s-.236-.295-.214-.45c-.02-.57.7-.875 2.36-.883z"/></g><defs><clipPath id="A"><path fill="#fff" d="M0 0h223v23H0z"/></clipPath></defs></svg>
